; generated by SuperSlicer 2.3.57 on 2022-02-19 at 11:49:41 UTC

; external perimeters extrusion width = 0.42mm
; perimeters extrusion width = 0.45mm
; infill extrusion width = 0.48mm
; solid infill extrusion width = 0.45mm
; top infill extrusion width = 0.42mm

; object:{"name":"box","id":"box id:0 copy 0","object_center":[38.084700,41.633200,0.000000],"boundingbox_center":[38.084700,41.633200,15.154000],"boundingbox_size":[10.104000,20.207001,30.308001]}
; plater:{"center":[38.084700,41.633200,0.000000],"boundingbox_center":[38.084700,41.633200,15.154000],"boundingbox_size":[10.104000,20.207001,30.308001]}

;TYPE:Custom
M190 S0; Dummy
M109 S0; Dummy
START_PRINT BED_TEMP=115 EXTRUDER_TEMP=270
M107
G21 ; set units to millimeters
G90 ; use absolute coordinates
M82 ; use absolute distances for extrusion
G92 E0
SET_PRESSURE_ADVANCE ADVANCE=.027
;LAYER_CHANGE
;Z:0.2
;HEIGHT:0.2
G1 E-0.25 F2100
G1 Z0.2 F12000
G92 E0
M204 S2500
G1 X24.467 Y23.634
G1 E0.25 F2100
;TYPE:Skirt
;WIDTH:0.45
G1 F1800
G1 X25.587 Y22.61 E0.30241
G1 X26.916 Y21.877 E0.35483
G1 X28.381 Y21.476 E0.40724
G1 X29.31 Y21.405 E0.43943
G1 X46.843 Y21.405 E1.04477
G1 X47.977 Y21.507 E1.08406
G1 X49.074 Y21.807 E1.12336
G1 X50.102 Y22.297 E1.16266
G1 X51.022 Y22.956 E1.20174
G1 X51.817 Y23.771 E1.24104
G1 X52.452 Y24.708 E1.28012
G1 X52.913 Y25.742 E1.3192
G1 X53.186 Y26.847 E1.3585
G1 X53.261 Y27.813 E1.39198
G1 X53.26 Y55.568 E2.35024
G1 X53.066 Y57.011 E2.4005
G1 X52.551 Y58.373 E2.45077
G1 X52.145 Y59.056 E2.47821
G1 X51.657 Y59.684 E2.50565
G1 X51.096 Y60.247 E2.53309
G1 X50.47 Y60.736 E2.56053
G1 X49.788 Y61.144 E2.58797
G1 X49.06 Y61.464 E2.61541
G1 X48.299 Y61.693 E2.64285
G1 X47.516 Y61.826 E2.67029
G1 X29.126 Y61.858 E3.3052
G1 X27.722 Y61.656 E3.35418
G1 X26.396 Y61.151 E3.40316
G1 X25.693 Y60.731 E3.43146
G1 X25.053 Y60.228 E3.45955
G1 X24.477 Y59.644 E3.48785
G1 X23.981 Y58.992 E3.51616
G1 X23.572 Y58.281 E3.54446
G1 X23.257 Y57.525 E3.57276
G1 X23.04 Y56.734 E3.60107
G1 X22.927 Y55.928 E3.62915
G1 X22.91 Y27.686 E4.60426
G1 X23.105 Y26.249 E4.65431
G1 X23.618 Y24.893 E4.70436
G1 X24.467 Y23.634 E4.75678
G1 X24.801 Y23.87 F12000
G1 F1800
G1 X25.86 Y22.915 E4.80604
G1 X27.115 Y22.235 E4.85531
G1 X28.489 Y21.871 E4.90437
G1 X29.316 Y21.812 E4.93301
G1 X46.843 Y21.812 E5.53813
G1 X47.91 Y21.908 E5.57511
G1 X48.937 Y22.19 E5.61189
G1 X49.904 Y22.652 E5.64888
G1 X50.773 Y23.278 E5.68586
G1 X51.518 Y24.048 E5.72285
G1 X52.111 Y24.933 E5.75963
G1 X52.541 Y25.914 E5.79662
G1 X52.791 Y26.956 E5.8336
G1 X52.854 Y27.813 E5.86329
G1 X52.853 Y55.558 E6.8212
G1 X52.668 Y56.924 E6.8688
G1 X52.173 Y58.218 E6.91661
G1 X51.789 Y58.856 E6.94233
G1 X51.328 Y59.441 E6.96805
G1 X50.799 Y59.966 E6.99377
G1 X50.209 Y60.421 E7.01949
G1 X49.568 Y60.799 E7.04521
G1 X48.884 Y61.095 E7.07093
G1 X48.169 Y61.305 E7.09665
G1 X47.434 Y61.425 E7.12237
G1 X29.145 Y61.451 E7.75382
G1 X27.81 Y61.259 E7.80038
G1 X26.552 Y60.773 E7.84694
G1 X25.894 Y60.375 E7.8735
G1 X25.296 Y59.9 E7.89985
G1 X24.764 Y59.353 E7.92619
G1 X24.302 Y58.739 E7.95275
G1 X23.922 Y58.07 E7.9793
G1 X23.632 Y57.364 E8.00565
G1 X23.433 Y56.621 E8.03221
G1 X23.33 Y55.865 E8.05855
G1 X23.316 Y27.702 E9.03088
G1 X23.503 Y26.336 E9.07849
G1 X23.996 Y25.049 E9.12609
G1 X24.801 Y23.87 E9.17535
G1 X25.125 Y24.118 F12000
G1 F1800
G1 X26.122 Y23.228 E9.22151
G1 X27.297 Y22.602 E9.26747
G1 X28.591 Y22.268 E9.31363
G1 X29.315 Y22.219 E9.33866
G1 X46.843 Y22.219 E9.94382
G1 X47.838 Y22.309 E9.97832
G1 X48.807 Y22.576 E10.01302
G1 X49.708 Y23.009 E10.04753
G1 X50.522 Y23.599 E10.08223
G1 X51.217 Y24.324 E10.11694
G1 X51.77 Y25.157 E10.15144
G1 X52.168 Y26.08 E10.18614
G1 X52.394 Y27.059 E10.22085
G1 X52.447 Y27.818 E10.24709
G1 X52.446 Y55.542 E11.20429
G1 X52.27 Y56.838 E11.24945
G1 X51.8 Y58.052 E11.2944
G1 X51.009 Y59.187 E11.34216
G1 X49.96 Y60.098 E11.39013
G1 X48.719 Y60.722 E11.43809
G1 X47.363 Y61.023 E11.48605
G1 X29.163 Y61.045 E12.11441
G1 X27.903 Y60.862 E12.15836
G1 X26.717 Y60.4 E12.20231
G1 X26.108 Y60.028 E12.22694
G1 X25.552 Y59.582 E12.25158
G1 X25.056 Y59.069 E12.27621
G1 X24.63 Y58.496 E12.30084
G1 X24.28 Y57.875 E12.32547
G1 X24.009 Y57.208 E12.35031
G1 X23.827 Y56.519 E12.37494
G1 X23.735 Y55.811 E12.39957
G1 X23.723 Y27.713 E13.3697
G1 X23.9 Y26.429 E13.41445
G1 X24.369 Y25.214 E13.4594
G1 X25.125 Y24.118 E13.50536
G1 X25.455 Y24.36 F12000
G1 F1800
G1 X26.388 Y23.539 E13.54826
G1 X27.484 Y22.966 E13.59096
G1 X28.69 Y22.666 E13.63386
G1 X46.842 Y22.626 E14.26059
G1 X47.773 Y22.711 E14.29285
G1 X48.673 Y22.961 E14.3251
G1 X49.519 Y23.371 E14.35755
G1 X50.273 Y23.922 E14.38981
G1 X50.916 Y24.6 E14.42206
G1 X51.428 Y25.381 E14.45432
G1 X51.792 Y26.242 E14.48658
G1 X51.997 Y27.159 E14.51902
G1 X52.039 Y55.532 E15.49865
G1 X51.873 Y56.747 E15.54097
G1 X51.426 Y57.888 E15.58329
G1 X50.684 Y58.94 E15.62773
G1 X49.706 Y59.777 E15.67217
G1 X48.548 Y60.351 E15.71681
G1 X47.289 Y60.621 E15.76125
G1 X29.181 Y60.638 E16.38646
G1 X27.995 Y60.465 E16.42781
G1 X26.881 Y60.026 E16.46917
G1 X25.804 Y59.261 E16.51477
G1 X24.955 Y58.25 E16.56037
G1 X24.388 Y57.057 E16.60597
G1 X24.139 Y55.76 E16.65157
G1 X24.13 Y27.728 E17.61938
G1 X24.298 Y26.514 E17.6617
G1 X24.743 Y25.378 E17.70383
G1 X25.455 Y24.36 E17.74673
G92 E0
;WIPE_START
G1 F9600
G1 X26.313 Y23.605 E-0.2375
;WIPE_END
G1 E-0.25 F2100
G1 X30.682 Y29.587 F12000
G1 E0 F2100
G1 F1800
G1 X31.404 Y28.865 E0.03523
G1 X32.601 Y28.37 E0.07996
G1 X43.569 Y28.37 E0.45865
G1 X44.766 Y28.865 E0.50338
G1 X45.801 Y29.901 E0.55393
G1 X46.297 Y31.098 E0.59866
G1 X46.297 Y52.169 E1.32616
G1 X45.801 Y53.366 E1.37089
G1 X44.766 Y54.401 E1.42144
G1 X43.569 Y54.897 E1.46617
G1 X32.601 Y54.897 E1.84486
G1 X31.404 Y54.401 E1.88959
G1 X30.368 Y53.366 E1.94014
G1 X29.873 Y52.169 E1.98487
G1 X29.873 Y31.098 E2.71237
G1 X30.368 Y29.901 E2.7571
G1 X30.682 Y29.587 E2.77242
G1 X30.97 Y29.875 F12000
G1 F1800
G1 X31.634 Y29.21 E2.80486
G1 X32.682 Y28.777 E2.844
G1 X43.488 Y28.777 E3.21709
G1 X44.535 Y29.21 E3.25623
G1 X45.456 Y30.131 E3.30119
G1 X45.89 Y31.179 E3.34033
G1 X45.89 Y52.088 E4.06224
G1 X45.456 Y53.135 E4.10138
G1 X44.535 Y54.056 E4.14634
G1 X43.488 Y54.49 E4.18548
G1 X32.682 Y54.49 E4.55858
G1 X31.634 Y54.056 E4.59771
G1 X30.713 Y53.135 E4.64268
G1 X30.28 Y52.088 E4.68181
G1 X30.28 Y31.179 E5.40372
G1 X30.713 Y30.131 E5.44286
G1 X30.97 Y29.875 E5.45539
G1 X31.258 Y30.163 F12000
G1 F1800
G1 X31.865 Y29.556 E5.48503
G1 X32.763 Y29.184 E5.51858
G1 X43.407 Y29.184 E5.88608
G1 X44.305 Y29.556 E5.91963
G1 X45.111 Y30.362 E5.959
G1 X45.483 Y31.26 E5.99254
G1 X45.483 Y52.007 E6.70886
G1 X45.111 Y52.905 E6.74241
G1 X44.305 Y53.711 E6.78178
G1 X43.407 Y54.083 E6.81533
G1 X32.763 Y54.083 E7.18283
G1 X31.865 Y53.711 E7.21638
G1 X31.059 Y52.905 E7.25575
G1 X30.687 Y52.007 E7.2893
G1 X30.687 Y31.26 E8.00561
G1 X31.059 Y30.362 E8.03916
G1 X31.258 Y30.163 E8.04889
G1 X31.546 Y30.45 F12000
G1 F1800
G1 X32.095 Y29.901 E8.07573
G1 X32.844 Y29.591 E8.10369
G1 X43.326 Y29.591 E8.4656
G1 X44.074 Y29.901 E8.49356
G1 X44.766 Y30.592 E8.52734
G1 X45.076 Y31.341 E8.55529
G1 X45.076 Y51.926 E9.26602
G1 X44.766 Y52.674 E9.29398
G1 X44.074 Y53.366 E9.32776
G1 X43.326 Y53.676 E9.35571
G1 X32.844 Y53.676 E9.71762
G1 X32.095 Y53.366 E9.74558
G1 X31.404 Y52.674 E9.77936
G1 X31.094 Y51.926 E9.80732
G1 X31.094 Y31.341 E10.51804
G1 X31.404 Y30.592 E10.546
G1 X31.546 Y30.45 E10.55293
G1 X31.834 Y30.738 F12000
G1 F1800
G1 X32.326 Y30.246 E10.57698
G1 X32.924 Y29.998 E10.59935
G1 X43.245 Y29.998 E10.95567
G1 X43.843 Y30.246 E10.97803
G1 X44.421 Y30.823 E11.00622
G1 X44.669 Y31.421 E11.02858
G1 X44.669 Y51.845 E11.73372
G1 X44.421 Y52.443 E11.75608
G1 X43.843 Y53.021 E11.78427
G1 X43.245 Y53.269 E11.80664
G1 X32.924 Y53.269 E12.16296
G1 X32.326 Y53.021 E12.18532
G1 X31.749 Y52.443 E12.21351
G1 X31.501 Y51.845 E12.23587
G1 X31.501 Y31.421 E12.94101
G1 X31.749 Y30.823 E12.96337
G1 X31.834 Y30.738 E12.96751
G1 X32.121 Y31.026 F12000
G1 F1800
G1 X32.557 Y30.591 E12.98877
G1 X33.005 Y30.405 E13.00554
G1 X43.164 Y30.405 E13.35627
G1 X43.613 Y30.591 E13.37304
G1 X44.076 Y31.054 E13.39564
G1 X44.261 Y31.502 E13.41241
G1 X44.261 Y51.764 E14.11196
G1 X44.076 Y52.213 E14.12873
G1 X43.613 Y52.676 E14.15133
G1 X43.164 Y52.861 E14.1681
G1 X33.005 Y52.861 E14.51883
G1 X32.557 Y52.676 E14.5356
G1 X32.094 Y52.213 E14.5582
G1 X31.908 Y51.764 E14.57497
G1 X31.908 Y31.502 E15.27452
G1 X32.094 Y31.054 E15.29129
G1 X32.121 Y31.026 E15.29263
G1 X32.439 Y31.284 F12000
G1 F1800
G1 X32.787 Y30.936 E15.30964
G1 X33.086 Y30.812 E15.32082
G1 X43.083 Y30.812 E15.66596
G1 X43.382 Y30.936 E15.67714
G1 X43.73 Y31.284 E15.69415
G1 X43.854 Y31.583 E15.70533
G1 X43.854 Y51.683 E16.39928
G1 X43.73 Y51.982 E16.41046
G1 X43.382 Y52.33 E16.42747
G1 X43.083 Y52.454 E16.43865
G1 X33.086 Y52.454 E16.78379
G1 X32.787 Y52.33 E16.79497
G1 X32.439 Y51.982 E16.81197
G1 X32.315 Y51.683 E16.82316
G1 X32.315 Y31.583 E17.51711
G1 X32.439 Y31.284 E17.52829
G1 X32.784 Y31.515 F12000
G1 F1800
G1 X33.018 Y31.281 E17.5397
G1 X33.167 Y31.219 E17.5453
G1 X43.002 Y31.219 E17.88484
G1 X43.152 Y31.281 E17.89043
G1 X43.385 Y31.515 E17.90185
G1 X43.447 Y31.664 E17.90744
G1 X43.447 Y51.602 E18.5958
G1 X43.385 Y51.752 E18.60139
G1 X43.152 Y51.985 E18.6128
G1 X43.002 Y52.047 E18.61839
G1 X33.167 Y52.047 E18.95794
G1 X33.018 Y51.985 E18.96353
G1 X32.784 Y51.752 E18.97495
G1 X32.722 Y51.602 E18.98054
G1 X32.722 Y31.664 E19.6689
G1 X32.784 Y31.515 E19.67449
G1 X33.129 Y31.745 F12000
G1 F1800
G1 X33.248 Y31.626 E19.68031
G1 X42.921 Y31.626 E20.01427
G1 X43.04 Y31.745 E20.02009
G1 X43.04 Y51.521 E20.70286
G1 X42.921 Y51.64 E20.70868
G1 X33.248 Y51.64 E21.04263
G1 X33.129 Y51.521 E21.04846
G1 X33.129 Y31.745 E21.73123
; INIT printing object box id:0 copy 0
M104 S270 ; set temperature
G92 E0
;WIPE_START
G1 F9600
G1 X33.248 Y31.626 E-0.03504
G1 X34.223 Y31.626 E-0.2375
;WIPE_END
G1 E-0.25 F2100
; printing object box id:0 copy 0
G1 X38.085 Y51.227 F12000
G1 E0 F2100
;TYPE:External perimeter
;WIDTH:0.42
G1 F1800
G1 X42.627 Y51.227 E0.14526
G1 X42.627 Y32.04 E0.75889
G1 X33.543 Y32.04 E1.04941
G1 X33.543 Y51.227 E1.66303
G1 X38.085 Y51.227 E1.80829
G1 X38.285 Y50.88 F12000
G1 X38.085 Y50.835
;TYPE:Internal perimeter
;WIDTH:0.45
G1 F1800
G1 X42.235 Y50.835 E1.95157
G1 X42.235 Y32.432 E2.58694
G1 X33.935 Y32.432 E2.8735
G1 X33.935 Y50.835 E3.50887
G1 X38.085 Y50.835 E3.65215
G1 X38.085 Y50.428 F12000
G1 F1800
G1 X41.828 Y50.428 E3.78138
G1 X41.828 Y32.839 E4.38864
G1 X34.342 Y32.839 E4.64709
G1 X34.342 Y50.428 E5.25435
G1 X38.085 Y50.428 E5.38358
G1 X38.085 Y50.02 F12000
G1 F1800
G1 X41.42 Y50.02 E5.49875
G1 X41.42 Y33.246 E6.0779
G1 X34.749 Y33.246 E6.30824
G1 X34.749 Y50.02 E6.8874
G1 X38.085 Y50.02 E7.00257
G1 X38.085 Y49.613 F12000
G1 F1800
G1 X41.013 Y49.613 E7.10368
G1 X41.013 Y33.653 E7.65473
G1 X35.156 Y33.653 E7.85696
G1 X35.156 Y49.613 E8.408
G1 X38.085 Y49.613 E8.50912
G92 E0
;WIPE_START
G1 F9600
G1 X39.228 Y49.613 E-0.2375
;WIPE_END
G1 E-0.25 F2100
G1 X40.007 Y33.836 F12000
G1 E0 F2100
;TYPE:Solid infill
G1 F1800
G1 X40.647 Y34.476 E0.03124
G1 X40.647 Y35.052 E0.05111
G1 X39.615 Y34.019 E0.10151
G1 X39.039 Y34.019 E0.12139
G1 X40.647 Y35.627 E0.1999
G1 X40.647 Y36.203 E0.21978
G1 X38.463 Y34.019 E0.3264
G1 X37.888 Y34.019 E0.34627
G1 X40.647 Y36.779 E0.481
G1 X40.647 Y37.354 E0.50088
G1 X37.312 Y34.019 E0.66372
G1 X36.736 Y34.019 E0.68359
G1 X40.647 Y37.93 E0.87454
G1 X40.647 Y38.506 E0.89442
G1 X36.161 Y34.019 E1.11347
G1 X35.585 Y34.019 E1.13335
G1 X40.647 Y39.081 E1.38052
G1 X40.647 Y39.657 E1.40039
G1 X35.522 Y34.533 E1.65061
G1 X35.522 Y35.108 E1.67049
G1 X40.647 Y40.233 E1.92071
G1 X40.647 Y40.809 E1.94059
G1 X35.522 Y35.684 E2.19081
G1 X35.522 Y36.26 E2.21068
G1 X40.647 Y41.384 E2.4609
G1 X40.647 Y41.96 E2.48078
G1 X35.522 Y36.835 E2.731
G1 X35.522 Y37.411 E2.75088
G1 X40.647 Y42.536 E3.0011
G1 X40.647 Y43.111 E3.02097
G1 X35.522 Y37.987 E3.27119
G1 X35.522 Y38.562 E3.29107
G1 X40.647 Y43.687 E3.54129
G1 X40.647 Y44.263 E3.56117
G1 X35.522 Y39.138 E3.81139
G1 X35.522 Y39.714 E3.83126
G1 X40.647 Y44.838 E4.08148
G1 X40.647 Y45.414 E4.10136
G1 X35.522 Y40.29 E4.35158
G1 X35.522 Y40.865 E4.37146
G1 X40.647 Y45.99 E4.62168
G1 X40.647 Y46.566 E4.64155
G1 X35.522 Y41.441 E4.89177
G1 X35.522 Y42.017 E4.91165
G1 X40.647 Y47.141 E5.16187
G1 X40.647 Y47.717 E5.18175
G1 X35.522 Y42.592 E5.43197
G1 X35.522 Y43.168 E5.45184
G1 X40.647 Y48.293 E5.70206
G1 X40.647 Y48.868 E5.72194
G1 X35.522 Y43.744 E5.97216
G1 X35.522 Y44.319 E5.99204
G1 X40.45 Y49.247 E6.23264
G1 X39.874 Y49.247 E6.25252
G1 X35.522 Y44.895 E6.46501
G1 X35.522 Y45.471 E6.48488
G1 X39.299 Y49.247 E6.66927
G1 X38.723 Y49.247 E6.68914
G1 X35.522 Y46.046 E6.84542
G1 X35.522 Y46.622 E6.86529
G1 X38.147 Y49.247 E6.99346
G1 X37.572 Y49.247 E7.01333
G1 X35.522 Y47.198 E7.11339
G1 X35.522 Y47.774 E7.13326
G1 X36.996 Y49.247 E7.20521
G1 X36.42 Y49.247 E7.22508
G1 X35.522 Y48.349 E7.26892
G1 X35.522 Y48.925 E7.2888
G1 X36.028 Y49.43 E7.31347
; INIT stop printing object box id:0 copy 0
M106 S76.5
;LAYER_CHANGE
;Z:0.4
;HEIGHT:0.2
G92 E0
;WIPE_START
G1 F9600
G1 X35.522 Y48.925 E-0.14849
G1 X35.522 Y48.497 E-0.2375
;WIPE_END
G1 E-0.25 F2100
; stop printing object box id:0 copy 0
G1 Z0.4 F12000
M104 S260 ; set temperature
M140 S115 ; set bed temperature
; INIT printing object box id:0 copy 0
G92 E0
; printing object box id:0 copy 0
G1 X38.085 Y49.913
G1 E0.25 F2100
;TYPE:Internal perimeter
G1 F3900
G1 X34.856 Y49.913 E0.36147
G1 X34.856 Y33.353 E0.93323
G1 X41.313 Y33.353 E1.15618
G1 X41.313 Y49.913 E1.72794
G1 X38.085 Y49.913 E1.83941
G1 X38.085 Y50.32 F12000
G1 F3900
G1 X34.449 Y50.32 E1.96494
G1 X34.449 Y32.946 E2.56481
G1 X41.72 Y32.946 E2.81586
G1 X41.72 Y50.32 E3.41573
G1 X38.085 Y50.32 E3.54126
G1 X38.085 Y50.728 F12000
G1 F3900
G1 X34.042 Y50.728 E3.68084
G1 X34.042 Y32.539 E4.30882
G1 X42.128 Y32.539 E4.58799
G1 X42.128 Y50.728 E5.21596
G1 X38.085 Y50.728 E5.35555
G1 X38.085 Y51.135 F12000
G1 F3900
G1 X33.635 Y51.135 E5.50918
G1 X33.635 Y32.132 E6.16527
G1 X42.535 Y32.132 E6.47255
G1 X42.535 Y51.135 E7.12863
G1 X38.085 Y51.135 E7.28227
G1 X38.085 Y51.527 F12000
;TYPE:Overhang perimeter
;WIDTH:0.357771
;HEIGHT:0.357771
G1 F1200
G1 X33.243 Y51.527 E7.48869
G1 X33.243 Y31.74 E8.33225
G1 X42.927 Y31.74 E8.7451
G1 X42.927 Y51.527 E9.58865
G1 X38.085 Y51.527 E9.79508
G92 E0
;WIPE_START
G1 F9600
G1 X36.942 Y51.527 E-0.2375
;WIPE_END
G1 E-0.25 F2100
G1 X35.776 Y33.536 F12000
G1 E0 F2100
;TYPE:Solid infill
;WIDTH:0.45
;HEIGHT:0.2
G1 F3900
G1 X35.222 Y34.09 E0.02704
G1 X35.222 Y34.666 E0.04692
G1 X36.169 Y33.719 E0.09313
G1 X36.744 Y33.719 E0.11301
G1 X35.222 Y35.241 E0.18732
G1 X35.222 Y35.817 E0.2072
G1 X37.32 Y33.719 E0.30963
G1 X37.896 Y33.719 E0.3295
G1 X35.222 Y36.393 E0.46004
G1 X35.222 Y36.969 E0.47992
G1 X38.472 Y33.719 E0.63856
G1 X39.047 Y33.719 E0.65844
G1 X35.222 Y37.544 E0.8452
G1 X35.222 Y38.12 E0.86507
G1 X39.623 Y33.719 E1.07994
G1 X40.199 Y33.719 E1.09981
G1 X35.222 Y38.696 E1.34279
G1 X35.222 Y39.271 E1.36267
G1 X40.774 Y33.719 E1.63375
G1 X40.947 Y33.719 E1.63971
G1 X40.947 Y34.122 E1.65363
G1 X35.222 Y39.847 E1.93314
G1 X35.222 Y40.423 E1.95302
G1 X40.947 Y34.698 E2.23254
G1 X40.947 Y35.274 E2.25241
G1 X35.222 Y40.998 E2.53193
G1 X35.222 Y41.574 E2.5518
G1 X40.947 Y35.849 E2.83132
G1 X40.947 Y36.425 E2.8512
G1 X35.222 Y42.15 E3.13071
G1 X35.222 Y42.726 E3.15059
G1 X40.947 Y37.001 E3.43011
G1 X40.947 Y37.577 E3.44998
G1 X35.222 Y43.301 E3.7295
G1 X35.222 Y43.877 E3.74938
G1 X40.947 Y38.152 E4.02889
G1 X40.947 Y38.728 E4.04877
G1 X35.222 Y44.453 E4.32828
G1 X35.222 Y45.028 E4.34816
G1 X40.947 Y39.304 E4.62768
G1 X40.947 Y39.879 E4.64755
G1 X35.222 Y45.604 E4.92707
G1 X35.222 Y46.18 E4.94695
G1 X40.947 Y40.455 E5.22646
G1 X40.947 Y41.031 E5.24634
G1 X35.222 Y46.755 E5.52586
G1 X35.222 Y47.331 E5.54573
G1 X40.947 Y41.606 E5.82525
G1 X40.947 Y42.182 E5.84513
G1 X35.222 Y47.907 E6.12464
G1 X35.222 Y48.482 E6.14452
G1 X40.947 Y42.758 E6.42403
G1 X40.947 Y43.334 E6.44391
G1 X35.222 Y49.058 E6.72343
G1 X35.222 Y49.547 E6.74031
G1 X35.309 Y49.547 E6.7433
G1 X40.947 Y43.909 E7.01858
G1 X40.947 Y44.485 E7.03846
