; generated by SuperSlicer 2.3.57 on 2022-03-18 at 15:42:12 UTC


;
;

;
;
; 

; external perimeters extrusion width = 0.42mm
; perimeters extrusion width = 0.45mm
; infill extrusion width = 0.45mm
; solid infill extrusion width = 0.45mm
; top infill extrusion width = 0.42mm

; object:{"name":"box","id":"box id:0 copy 0","object_center":[94.889785,94.043850,0.000000],"boundingbox_center":[94.889785,94.043850,15.154000],"boundingbox_size":[10.104000,20.207001,30.308001]}
; plater:{"center":[94.889785,94.043850,0.000000],"boundingbox_center":[94.889785,94.043850,15.154000],"boundingbox_size":[10.104000,20.207001,30.308001]}

;TYPE:Custom
; custom gcode: start_gcode
print_start EXTRUDER=260 BED=110
; custom gcode end: start_gcode
G21 ; set units to millimeters
G90 ; use absolute coordinates
M82 ; use absolute distances for extrusion
G92 E0
; custom gcode: start_filament_gcode
;Filament gcode
;SET_PRESSURE_ADVANCE ADVANCE=0.02
;SET_PRESSURE_ADVANCE SMOOTH_TIME=0.02
SET_PRESSURE_ADVANCE ADVANCE=0.013
SET_PRESSURE_ADVANCE SMOOTH_TIME=0.0175
; custom gcode end: start_filament_gcode
M104 S260 ; set temperature
M109 S260 ; set temperature and wait for it to be reached
M190 S110 ; set bed temperature and wait for it to be reached
;LAYER_CHANGE
;Z:0.2
;HEIGHT:0.2
G1 E-0.35 F2100
G1 Z0.2 F33000
G92 E0
M204 S10000
G1 X85.836 Y79.399
G1 E0.35 F2100
;TYPE:Skirt
;WIDTH:0.45
G1 F6000
G1 X87.036 Y78.575 E0.39704
G1 X88.391 Y78.063 E0.44389
G1 X89.745 Y77.888 E0.488
G1 X99.948 Y77.887 E0.81782
G1 X100.982 Y77.977 E0.85138
G1 X101.986 Y78.243 E0.88494
G1 X102.929 Y78.676 E0.91849
G1 X103.785 Y79.264 E0.95205
G1 X104.527 Y79.989 E0.98561
G1 X105.135 Y80.831 E1.01917
G1 X105.59 Y81.764 E1.05272
G1 X105.879 Y82.761 E1.08628
G1 X105.995 Y83.908 E1.12356
G1 X105.994 Y104.22 E1.78016
G1 X105.886 Y105.289 E1.81489
G1 X105.591 Y106.322 E1.84962
G1 X105.271 Y107.018 E1.87436
G1 X104.866 Y107.667 E1.8991
G1 X104.383 Y108.26 E1.92384
G1 X103.828 Y108.788 E1.94858
G1 X103.212 Y109.241 E1.97332
G1 X102.543 Y109.613 E1.99806
G1 X101.832 Y109.898 E2.0228
G1 X101.091 Y110.09 E2.04754
G1 X99.998 Y110.2 E2.08306
G1 X89.704 Y110.199 E2.41583
G1 X88.666 Y110.086 E2.44958
G1 X87.663 Y109.796 E2.48333
G1 X86.925 Y109.453 E2.50964
G1 X86.239 Y109.015 E2.53595
G1 X85.614 Y108.484 E2.56245
G1 X85.071 Y107.878 E2.58876
G1 X84.61 Y107.199 E2.61527
G1 X84.248 Y106.471 E2.64158
G1 X83.986 Y105.694 E2.66808
G1 X83.831 Y104.895 E2.69439
G1 X83.785 Y83.843 E3.3749
G1 X83.896 Y82.787 E3.40924
G1 X84.189 Y81.765 E3.44358
G1 X84.871 Y80.48 E3.49063
G1 X85.796 Y79.444 E3.53553
G1 X86.1 Y79.718 F33000
G1 F6000
G1 X86.14 Y79.674 E3.53748
G1 X87.272 Y78.911 E3.58159
G1 X88.553 Y78.442 E3.62569
G1 X89.763 Y78.295 E3.66509
G1 X99.948 Y78.294 E3.99432
G1 X100.923 Y78.38 E4.02597
G1 X101.863 Y78.631 E4.05743
G1 X102.747 Y79.04 E4.08889
G1 X103.546 Y79.595 E4.12035
G1 X104.239 Y80.278 E4.15181
G1 X104.807 Y81.076 E4.18346
G1 X105.229 Y81.959 E4.21511
G1 X105.491 Y82.897 E4.24658
G1 X105.588 Y83.912 E4.27955
G1 X105.587 Y104.218 E4.93594
G1 X105.484 Y105.227 E4.96872
G1 X105.201 Y106.201 E5.00151
G1 X104.899 Y106.85 E5.02464
G1 X104.517 Y107.455 E5.04778
G1 X104.062 Y108.007 E5.07091
G1 X103.536 Y108.501 E5.09424
G1 X102.957 Y108.921 E5.11737
G1 X102.323 Y109.267 E5.1407
G1 X101.656 Y109.527 E5.16383
G1 X100.962 Y109.7 E5.18697
G1 X99.987 Y109.793 E5.21862
G1 X89.715 Y109.792 E5.5507
G1 X88.735 Y109.685 E5.58254
G1 X87.784 Y109.407 E5.61456
G1 X87.094 Y109.082 E5.63921
G1 X86.454 Y108.667 E5.66386
G1 X85.876 Y108.17 E5.68851
G1 X85.37 Y107.6 E5.71316
G1 X84.946 Y106.966 E5.73781
G1 X84.608 Y106.276 E5.76265
G1 X84.369 Y105.552 E5.7873
G1 X84.23 Y104.802 E5.81195
G1 X84.192 Y83.852 E6.48917
G1 X84.298 Y82.85 E6.52176
G1 X84.578 Y81.887 E6.55417
G1 X85.225 Y80.685 E6.59828
G1 X86.059 Y79.763 E6.6385
G1 X86.36 Y80.04 F33000
G1 F6000
G1 X86.442 Y79.951 E6.6424
G1 X87.506 Y79.249 E6.68361
G1 X88.708 Y78.825 E6.72482
G1 X89.78 Y78.702 E6.75967
G1 X99.947 Y78.701 E7.08835
G1 X100.853 Y78.781 E7.11774
G1 X101.737 Y79.019 E7.14732
G1 X102.561 Y79.403 E7.17671
G1 X103.31 Y79.928 E7.20628
G1 X103.957 Y80.575 E7.23586
G1 X104.478 Y81.32 E7.26525
G1 X104.865 Y82.149 E7.29483
G1 X105.101 Y83.027 E7.32422
G1 X105.181 Y83.922 E7.35325
G1 X105.18 Y104.215 E8.00925
G1 X105.081 Y105.164 E8.0401
G1 X104.811 Y106.08 E8.07095
G1 X104.167 Y107.244 E8.11397
G1 X103.246 Y108.213 E8.15717
G1 X102.11 Y108.917 E8.20038
G1 X100.838 Y109.309 E8.2434
G1 X99.977 Y109.386 E8.27133
G1 X89.719 Y109.385 E8.60294
G1 X88.793 Y109.281 E8.63306
G1 X87.905 Y109.017 E8.663
G1 X87.263 Y108.71 E8.68601
G1 X86.673 Y108.322 E8.70885
G1 X86.136 Y107.854 E8.73186
G1 X85.671 Y107.323 E8.75469
G1 X85.279 Y106.729 E8.77771
G1 X84.971 Y106.087 E8.80072
G1 X84.753 Y105.409 E8.82373
G1 X84.63 Y104.713 E8.84657
G1 X84.599 Y83.861 E9.52063
G1 X84.7 Y82.918 E9.55129
G1 X84.968 Y82.008 E9.58196
G1 X85.579 Y80.889 E9.62317
G1 X86.32 Y80.084 E9.65854
G1 X86.618 Y80.362 F33000
G1 F6000
G1 X86.738 Y80.234 E9.66423
G1 X87.735 Y79.59 E9.70258
G1 X88.858 Y79.209 E9.74093
G1 X89.791 Y79.109 E9.77125
G1 X99.947 Y79.109 E10.09956
G1 X100.795 Y79.184 E10.12708
G1 X101.612 Y79.406 E10.15443
G1 X102.377 Y79.767 E10.18178
G1 X103.068 Y80.256 E10.20913
G1 X103.666 Y80.862 E10.23666
G1 X104.146 Y81.559 E10.26401
G1 X104.497 Y82.328 E10.29136
G1 X104.708 Y83.148 E10.31871
G1 X104.774 Y83.926 E10.34396
G1 X104.773 Y104.207 E10.99955
G1 X104.679 Y105.097 E11.02848
G1 X104.423 Y105.954 E11.0574
G1 X103.819 Y107.031 E11.09732
G1 X102.957 Y107.923 E11.13741
G1 X101.902 Y108.564 E11.17732
G1 X100.718 Y108.916 E11.21724
G1 X99.967 Y108.979 E11.24161
G1 X89.729 Y108.978 E11.57255
G1 X88.862 Y108.88 E11.60078
G1 X88.031 Y108.629 E11.62883
G1 X86.893 Y107.979 E11.67118
G1 X85.972 Y107.047 E11.71353
G1 X85.338 Y105.907 E11.75571
G1 X85.03 Y104.633 E11.79806
G1 X85.006 Y83.87 E12.46925
G1 X85.101 Y82.985 E12.498
G1 X85.356 Y82.134 E12.52675
G1 X85.929 Y81.1 E12.56492
G1 X86.577 Y80.406 E12.59563
G1 X86.872 Y80.687 F33000
G1 F6000
G1 X87.034 Y80.518 E12.6032
G1 X87.959 Y79.934 E12.63855
G1 X88.999 Y79.596 E12.67391
G1 X89.804 Y79.516 E12.70008
G1 X99.947 Y79.516 E13.02794
G1 X100.728 Y79.586 E13.05328
G1 X101.483 Y79.793 E13.07861
G1 X102.186 Y80.127 E13.10378
G1 X102.824 Y80.583 E13.12911
G1 X103.368 Y81.14 E13.15428
G1 X103.808 Y81.788 E13.17961
G1 X104.125 Y82.499 E13.20477
G1 X104.314 Y83.26 E13.23011
G1 X104.367 Y83.928 E13.25176
G1 X104.366 Y104.205 E13.90722
G1 X104.278 Y105.03 E13.93406
G1 X104.034 Y105.829 E13.96106
G1 X103.472 Y106.815 E13.99775
G1 X102.677 Y107.625 E14.03444
G1 X101.702 Y108.207 E14.07113
G1 X100.607 Y108.522 E14.10798
G1 X99.96 Y108.572 E14.12896
G1 X89.739 Y108.571 E14.45935
G1 X88.93 Y108.478 E14.48569
G1 X88.156 Y108.24 E14.51186
G1 X87.116 Y107.636 E14.55071
G1 X86.278 Y106.775 E14.58957
G1 X85.704 Y105.725 E14.62825
G1 X85.432 Y104.554 E14.66711
G1 X85.413 Y83.878 E15.33548
G1 X85.503 Y83.053 E15.36232
G1 X85.745 Y82.258 E15.38916
G1 X86.283 Y81.306 E15.42452
G1 X86.831 Y80.731 E15.4502
G1 X87.123 Y81.014 F33000
G1 F6000
G1 X87.324 Y80.806 E15.45955
G1 X88.174 Y80.283 E15.49181
G1 X89.131 Y79.985 E15.52422
G1 X89.816 Y79.923 E15.54644
G1 X99.947 Y79.923 E15.87393
G1 X100.661 Y79.988 E15.89711
G1 X101.347 Y80.177 E15.92013
G1 X101.994 Y80.486 E15.94331
G1 X102.575 Y80.906 E15.96649
G1 X103.073 Y81.423 E15.98967
G1 X103.471 Y82.02 E16.01285
G1 X103.756 Y82.677 E16.03603
G1 X103.919 Y83.371 E16.05905
G1 X103.959 Y104.197 E16.73227
G1 X103.877 Y104.959 E16.75705
G1 X103.649 Y105.696 E16.78198
G1 X103.129 Y106.593 E16.8155
G1 X102.397 Y107.327 E16.84902
G1 X101.501 Y107.85 E16.88255
G1 X100.502 Y108.126 E16.91607
G1 X89.749 Y108.164 E17.26367
G1 X89.007 Y108.078 E17.28781
G1 X88.289 Y107.855 E17.3121
G1 X87.349 Y107.301 E17.34737
G1 X86.592 Y106.516 E17.38264
G1 X86.073 Y105.55 E17.41806
G1 X85.834 Y104.486 E17.45333
G1 X85.82 Y83.886 E18.11924
G1 X85.904 Y83.124 E18.14401
G1 X86.13 Y82.392 E18.16878
G1 X86.629 Y81.522 E18.20119
G1 X87.081 Y81.057 E18.22215
G1 X87.369 Y81.342 F33000
G1 F6000
G1 X87.607 Y81.101 E18.2331
G1 X88.386 Y80.634 E18.26246
G1 X89.253 Y80.377 E18.29167
G1 X89.823 Y80.33 E18.31017
G1 X99.946 Y80.33 E18.63741
G1 X100.591 Y80.389 E18.65833
G1 X101.219 Y80.563 E18.67939
G1 X101.801 Y80.845 E18.70031
G1 X102.323 Y81.227 E18.72122
G1 X102.769 Y81.695 E18.74213
G1 X103.127 Y82.24 E18.7632
G1 X103.379 Y82.836 E18.78411
G1 X103.521 Y83.467 E18.80502
G1 X103.552 Y104.19 E19.4749
G1 X103.476 Y104.888 E19.49763
G1 X103.265 Y105.559 E19.52035
G1 X102.79 Y106.366 E19.55062
G1 X102.12 Y107.027 E19.58103
G1 X101.307 Y107.49 E19.6113
G1 X100.401 Y107.729 E19.64156
G1 X89.758 Y107.757 E19.98561
G1 X89.078 Y107.677 E20.00773
G1 X88.426 Y107.47 E20.02986
G1 X87.582 Y106.967 E20.06163
G1 X86.905 Y106.254 E20.09339
G1 X86.446 Y105.385 E20.12516
G1 X86.238 Y104.425 E20.15693
G1 X86.227 Y83.893 E20.82062
G1 X86.304 Y83.199 E20.84319
G1 X86.515 Y82.528 E20.86592
G1 X86.972 Y81.744 E20.89528
G1 X87.327 Y81.385 E20.91161
G1 X87.613 Y81.672 F33000
G1 F6000
G1 X87.885 Y81.401 E20.92401
G1 X88.585 Y80.992 E20.95024
G1 X89.366 Y80.772 E20.97647
G1 X99.946 Y80.737 E21.31847
G1 X100.527 Y80.791 E21.33732
G1 X101.083 Y80.947 E21.35602
G1 X101.603 Y81.201 E21.37472
G1 X102.069 Y81.545 E21.39341
G1 X102.468 Y81.97 E21.41226
G1 X102.781 Y82.456 E21.43096
G1 X103.003 Y82.995 E21.4498
G1 X103.123 Y83.561 E21.4685
G1 X103.145 Y104.183 E22.13511
G1 X103.075 Y104.815 E22.15566
G1 X102.883 Y105.416 E22.17607
G1 X102.454 Y106.135 E22.20315
G1 X101.853 Y106.719 E22.23023
G1 X101.121 Y107.126 E22.25731
G1 X100.312 Y107.329 E22.28425
G1 X89.771 Y107.35 E22.62499
G1 X89.158 Y107.278 E22.64497
G1 X88.569 Y107.089 E22.66495
G1 X87.819 Y106.635 E22.69331
G1 X87.222 Y105.997 E22.72152
G1 X86.82 Y105.223 E22.74974
G1 X86.642 Y104.368 E22.77795
G1 X86.634 Y83.901 E23.43958
G1 X86.704 Y83.273 E23.45999
G1 X86.896 Y82.672 E23.4804
G1 X87.309 Y81.973 E23.50663
G1 X87.57 Y81.714 E23.51851
; INIT printing object box id:0 copy 0
G92 E0
;WIPE_START
G1 F26400
G1 X87.885 Y81.401 E-0.03353
G1 X88.585 Y80.992 E-0.09485
G1 X89.366 Y80.772 E-0.15617
G1 X91.7 Y80.764 E-0.3325
;WIPE_END
G1 E-0.35 F2100
; printing object box id:0 copy 0
G1 X91.661 Y85.764 F33000
G1 E0 F2100
;TYPE:Internal perimeter
G1 F6000
G1 X98.118 Y85.764 E0.20874
G1 X98.118 Y102.324 E0.74406
G1 X91.661 Y102.324 E0.9528
G1 X91.661 Y85.824 E1.48619
G1 X91.254 Y85.357 F33000
G1 F6000
G1 X98.526 Y85.357 E1.72124
G1 X98.526 Y102.731 E2.28288
G1 X91.254 Y102.731 E2.51794
G1 X91.254 Y85.417 E3.07764
G1 X90.847 Y84.95 F33000
G1 F6000
G1 X98.933 Y84.95 E3.33902
G1 X98.933 Y103.138 E3.92698
G1 X90.847 Y103.138 E4.18835
G1 X90.847 Y85.01 E4.77437
G1 X90.44 Y84.542 F33000
G1 F6000
G1 X99.34 Y84.542 E5.06207
G1 X99.34 Y103.545 E5.67635
G1 X90.44 Y103.545 E5.96404
G1 X90.44 Y84.602 E6.57638
G1 X90.048 Y84.15 F33000
;TYPE:External perimeter
;WIDTH:0.42
G1 F6000
G1 X99.732 Y84.15 E6.86635
G1 X99.732 Y103.937 E7.45884
G1 X90.048 Y103.937 E7.74881
G1 X90.048 Y84.21 E8.3395
G1 X90.394 Y84.35 F33000
G92 E0
;WIPE_START
G1 F26400
G1 X94.448 Y84.183 E-0.3325
;WIPE_END
G1 E-0.35 F2100
G1 X91.799 Y101.269 F33000
G1 E0 F2100
;TYPE:Solid infill
;WIDTH:0.455892
G1 F6000
G1 X92.532 Y102.002 E0.03395
G1 X93.108 Y102.002 E0.0528
G1 X91.983 Y100.877 E0.10493
G1 X91.983 Y100.301 E0.12378
G1 X93.684 Y102.002 E0.20257
G1 X94.26 Y102.002 E0.22142
G1 X91.983 Y99.726 E0.32687
G1 X91.983 Y99.15 E0.34573
G1 X94.835 Y102.002 E0.47784
G1 X95.411 Y102.002 E0.49669
G1 X91.983 Y98.574 E0.65547
G1 X91.983 Y97.998 E0.67433
G1 X95.987 Y102.002 E0.85976
G1 X96.562 Y102.002 E0.87862
G1 X91.983 Y97.423 E1.09072
G1 X91.983 Y96.847 E1.10957
G1 X97.138 Y102.002 E1.34834
G1 X97.714 Y102.002 E1.36719
G1 X91.983 Y96.271 E1.63262
G1 X91.983 Y95.696 E1.65147
G1 X97.797 Y101.51 E1.92075
G1 X97.797 Y100.934 E1.93961
G1 X91.983 Y95.12 E2.20888
G1 X91.983 Y94.544 E2.22774
G1 X97.797 Y100.359 E2.49702
G1 X97.797 Y99.783 E2.51587
G1 X91.983 Y93.969 E2.78515
G1 X91.983 Y93.393 E2.804
G1 X97.797 Y99.207 E3.07328
G1 X97.797 Y98.631 E3.09213
G1 X91.983 Y92.817 E3.36141
G1 X91.983 Y92.242 E3.38027
G1 X97.797 Y98.056 E3.64954
G1 X97.797 Y97.48 E3.6684
G1 X91.983 Y91.666 E3.93768
G1 X91.983 Y91.09 E3.95653
G1 X97.797 Y96.904 E4.22581
G1 X97.797 Y96.329 E4.24466
G1 X91.983 Y90.514 E4.51394
G1 X91.983 Y89.939 E4.53279
G1 X97.797 Y95.753 E4.80207
G1 X97.797 Y95.177 E4.82093
G1 X91.983 Y89.363 E5.0902
G1 X91.983 Y88.787 E5.10906
G1 X97.797 Y94.602 E5.37834
G1 X97.797 Y94.026 E5.39719
G1 X91.983 Y88.212 E5.66647
G1 X91.983 Y87.636 E5.68532
G1 X97.797 Y93.45 E5.9546
G1 X97.797 Y92.874 E5.97345
G1 X91.983 Y87.06 E6.24273
G1 X91.983 Y86.485 E6.26158
G1 X97.170 Y91.672 E6.50181
M106 S43.35
G1 X97.797 Y92.299 E6.53086
G1 X97.797 Y91.723 E6.54972
G1 X92.159 Y86.085 E6.81083
G1 X92.735 Y86.085 E6.82968
G1 X97.797 Y91.147 E7.06412
G1 X97.797 Y90.572 E7.08298
G1 X93.31 Y86.085 E7.29076
G1 X93.886 Y86.085 E7.30962
G1 X97.797 Y89.996 E7.49074
G1 X97.797 Y89.42 E7.50959
G1 X94.462 Y86.085 E7.66405
G1 X95.038 Y86.085 E7.6829
G1 X97.797 Y88.845 E7.8107
G1 X97.797 Y88.269 E7.82955
G1 X95.613 Y86.085 E7.93068
G1 X96.189 Y86.085 E7.94953
G1 X97.797 Y87.693 E8.024
G1 X97.797 Y87.117 E8.04286
G1 X96.765 Y86.085 E8.09066
G1 X97.34 Y86.085 E8.10952
G1 X97.98 Y86.725 E8.13915
; INIT stop printing object box id:0 copy 0
;LAYER_CHANGE
;Z:0.4
;HEIGHT:0.2
G92 E0
;WIPE_START
G1 F26400
G1 X97.34 Y86.085 E-0.06837
G1 X96.765 Y86.085 E-0.11187
G1 X97.797 Y87.117 E-0.22219
G1 X97.797 Y87.693 E-0.26569
G1 X97.172 Y87.068 E-0.3325
;WIPE_END
G1 E-0.35 F2100
; stop printing object box id:0 copy 0
G1 Z0.4 F33000
; INIT printing object box id:0 copy 0
; printing object box id:0 copy 0
G1 X91.661 Y85.764
G1 E0 F2100
;TYPE:Internal perimeter
;WIDTH:0.45
G1 F9000
G1 X98.118 Y85.764 E0.20874
G1 X98.118 Y102.324 E0.74406
G1 X91.661 Y102.324 E0.9528
G1 X91.661 Y85.824 E1.48619
G1 X91.254 Y85.357 F33000
G1 F9000
G1 X98.526 Y85.357 E1.72124
G1 X98.526 Y102.731 E2.28288
G1 X91.254 Y102.731 E2.51794
G1 X91.254 Y85.417 E3.07764
G1 X90.847 Y84.95 F33000
G1 F9000
G1 X98.933 Y84.95 E3.33902
G1 X98.933 Y103.138 E3.92698
G1 X90.847 Y103.138 E4.18835
G1 X90.847 Y85.01 E4.77437
G1 X90.44 Y84.542 F33000
G1 F9000
G1 X99.34 Y84.542 E5.06207
G1 X99.34 Y103.545 E5.67635
G1 X90.44 Y103.545 E5.96404
G1 X90.44 Y84.602 E6.57638
G1 X90.048 Y84.15 F33000
;TYPE:External perimeter
;WIDTH:0.42
G1 F9000
G1 X99.732 Y84.15 E6.86635
G1 X99.732 Y103.937 E7.45884
G1 X90.048 Y103.937 E7.74881
G1 X90.048 Y84.21 E8.3395
G1 X90.394 Y84.35 F33000
G92 E0
;WIPE_START
G1 F26400
G1 X94.448 Y84.183 E-0.3325
;WIPE_END
G1 E-0.35 F2100
G1 X97.157 Y102.186 F33000
G1 E0 F2100
;TYPE:Solid infill
;WIDTH:0.455892
G1 F9000
G1 X97.797 Y101.546 E0.02963
G1 X97.797 Y100.97 E0.04848
G1 X96.765 Y102.002 E0.09629
G1 X96.189 Y102.002 E0.11514
G1 X97.797 Y100.395 E0.18961
G1 X97.797 Y99.819 E0.20846
G1 X95.613 Y102.002 E0.3096
G1 X95.038 Y102.002 E0.32845
G1 X97.797 Y99.243 E0.45625
G1 X97.797 Y98.667 E0.4751
G1 X94.462 Y102.002 E0.62956
G1 X93.886 Y102.002 E0.64841
G1 X97.797 Y98.092 E0.82953
G1 X97.797 Y97.516 E0.84838
G1 X93.31 Y102.002 E1.05617
G1 X92.735 Y102.002 E1.07502
G1 X97.797 Y96.94 E1.30947
G1 X97.797 Y96.365 E1.32832
G1 X92.159 Y102.002 E1.58943
G1 X91.983 Y102.002 E1.59521
G1 X91.983 Y101.603 E1.60828
G1 X97.797 Y95.789 E1.87756
G1 X97.797 Y95.213 E1.89641
G1 X91.983 Y101.027 E2.16569
G1 X91.983 Y100.452 E2.18455
G1 X97.797 Y94.638 E2.45382
G1 X97.797 Y94.062 E2.47268
G1 X91.983 Y99.876 E2.74196
G1 X91.983 Y99.3 E2.76081
G1 X97.797 Y93.486 E3.03009
G1 X97.797 Y92.91 E3.04894
G1 X91.983 Y98.725 E3.31822
G1 X91.983 Y98.149 E3.33707
G1 X97.797 Y92.335 E3.60635
G1 X97.797 Y91.759 E3.62521
G1 X91.983 Y97.573 E3.89448
G1 X91.983 Y96.998 E3.91334
G1 X97.797 Y91.183 E4.18262
G1 X97.797 Y90.608 E4.20147
G1 X91.983 Y96.422 E4.47075
G1 X91.983 Y95.846 E4.4896
G1 X97.797 Y90.032 E4.75888
G1 X97.797 Y89.456 E4.77773
G1 X91.983 Y95.27 E5.04701
G1 X91.983 Y94.695 E5.06586
G1 X97.797 Y88.881 E5.33514
G1 X97.797 Y88.305 E5.354
G1 X91.983 Y94.119 E5.62327
